images/footer/countries/5.svg

<svg width="37" height="22" fill="none" xmlns="http://www.w3.org/2000/svg"><path d="M36 0H0v22h37V0h-1zM21.2 1h9.2l-9.2 6V1zm-5.6 0v6.3L6 1h9.6zM1 1h3.2l10.9 7.1h-5L1 2.2V1zm0 2.3l7.3 4.8H1V3.3zm0 10.1h10.6L1 20.3v-6.9zM15.6 21H8.5l7.1-4.7V21zm0-5.9L6.7 21h-5l11.6-7.6h2.3v1.7zm5.6 5.9v-4.4l6.7 4.4h-6.7zm8.5 0l-8.5-5.6v-2.1H23L34.7 21h-5zm6.3-.3l-11.2-7.3H36v7.3zm0-11.6v3.2H20.2V21h-3.5v-8.8H1V9h15.7V1h3.5v8H36v.1zm0-1h-7.9L36 3v5.1zm0-6.3l-9.7 6.4h-5L32.2 1H36v.8z" fill="#fff"/></svg>

<svg width="37" height="22" viewBox="0 0 37 22" fill="none" xmlns="http://www.w3.org/2000/svg">
<path d="M36 0H0V22H37V0H36ZM21.2 1H30.4L21.2 7V1ZM15.6 1V7.3L6 1H15.6ZM1 1H4.2L15.1 8.1H10.1L1 2.2V1ZM1 3.3L8.3 8.1H1V3.3ZM1 13.4H11.6L1 20.3V13.4ZM15.6 21H8.5L15.6 16.3V21ZM15.6 15.1L6.7 21H1.7L13.3 13.4H15.6V15.1ZM21.2 21V16.6L27.9 21H21.2ZM29.7 21L21.2 15.4V13.3H23L34.7 21H29.7ZM36 20.7L24.8 13.4H36V20.7ZM36 9.1V12.3H20.2V21H16.7V12.2H1V9H16.7V1H20.2V9H36V9.1ZM36 8.1H28.1L36 3V8.1ZM36 1.8L26.3 8.2H21.3L32.2 1H36V1.8Z" fill="white"/>
</svg>
